X:1
T:Title
T:Franz Gruber Arr Hans Günther Kölz
T:Stille Nacht, heilige Nacht
C:Composer
%%score { ( 1 3 ) | 2 }
L:1/8
Q:1/4=160
M:3/4
K:C
V:1 treble nm="Piano" snm="Pia."
V:3 treble 
V:2 bass 
V:1
"Cmaj9/G""^Swing"!<(! [B,DEG]3 [B,DEG]- [B,DEG]2!<)! |"Dm7/G" [CDFA]3 [CDFA]- [CDFA]2 | %2
 [DEGB]3 [DEGB]-"Em" [DEGB]2 |1"Dm7/G"!>(! [CDFA]6!>)! :|2"Dm7/G"!>(! [CDFA]6!>)! || %5
"Cmaj7" (G3 A) G2 |"Fmaj7/G" [F,A,CE]6 |"Cmaj7" (G3 A) G2 |"Fmaj7/G" [F,A,CE]6 | %9
"Dm7" ([FAd]4 [FAd]2) |"G13b9" [E^GB]6 |"C" ([EGc]4 [EGc]2) |"C9sus4" [_B,DFG]4"Gb9#5" ([B,DE_A]2 | %13
"Fmaj7" [A,CEA]4) [CEA]2 |"F#other" ([_EAc]3 B) [CEA]2 |"Cmaj7/G" (G3 A) G2 |"Fmaj7/G" [F,A,CE]6 | %17
"Fmaj7" ([CEA]4 [CEA]2 |"F#other" [_EAc]3 B) [CEA]2 |"C/G" [CEG]3 A"Bb913" [_A,CDG]2 | %20
"A9" [G,B,^CE]6 |"Bm7"!<(! ([FAd]4 [FAd]2!<)! |"E7b9" [^GBf]3 d [EGB]2) |"Am7" [EGc]6 | %24
"D13#11"!>(! [E^GBe]6!>)! |"C"!mp!!>(! (c2 G2) E2!>)! |"G7" (G2 F2) D2 || %27
"Cmaj9/G"!p!!<(! [B,DEG]3 [B,DEG]- [B,DEG]2!<)! |"Dm7/G" [CDFA]3 [CDFA]- [CDFA]2 | %29
 [DEGB]3 [DEGB]-"Em" [DEGB]2 |"Dm7/G"!>(! [CDFA]6!>)! | %31
"Dbmaj9/G"!p!!<(! [C_EF_A]3 [CEFA]- [CEFA]2!<)! |"Ebm7/Ab" [_D_E_G_B]3 [DEGB]- [DEGB]2 | %33
!<(! [_EF_Ac]3 [EFAc]-"Fm7/Ab" [EFAc]2!<)! |"Ebm7/Ab" [_E_G_B_d]4!mf! ([_DEGB]2 || %35
[K:D]"Dmaj7" [CFA]3 [DGB] [CFA]2 |"Bm/E" [B,DF]4)"Cm/F" ([=C_EG]2 |"F#m7" [CEA]3) [DFB] [CEA]2 | %38
"B7b9" [=C_EF]3 (F (3A=c)^d |"Em7" ([GBe]4 [GBe]2) |"A13b9" [F^Ac]3 (c de) |"D6" [FBd]4 (B^A | %42
"D9" [CEA]4)"Ab9" ([C_E_G_B]2 |"Gmaj7" [B,DF=B]3) (D (3F)AB |"G#other" [FBd]4 (cB) | %45
"D/A" AB AD FA |"Am7" [CEG]4"Ab9" ([C_E_G_B]2 |"Gmaj7" [B,DF=B]3) (D (3F)AB |"G7" [=FBd]4 (cB) | %49
"F#m7b5" ([=CEA]3 [DFB] [CEA]2) |"B7b9" [=C_EF]3!<(! (E (3FA)^d!<)! | %51
"C#m7b5"!<(! [GBe]2 [F^A^d]2 [GBe]2!<)! |"Eb/F#" [_B_eg]2"D/F#" [Adf]2"C/F#" [G=ce]2 | %53
"Bm7" [FAd]4"_Rit." B2 |"E13"!>(! !fermata![F^Acf]6!>)! |"^a tempo"!>(! (d2 A2) F2!>)! | %56
 (A2 G2) E2 |"Bbmaj7" [=F,A,D]3"_Rit." [F,A,D]- [F,A,D]2 |"Ebmaj7" [G,_B,D]3 [G,B,D]- [G,B,D]2 | %59
"Dmaj9" !fermata![F,A,CE]2 z/ (C/E/)C/"_Rubato" (D/4F/4A/4B/4c/4e/4d/4B/4 | %60
!>(! !fermata![FAc]6)!>)! |] %61
V:2
 G,,4 G,,2 | G,,4 G,,2 | G,,4 G,,2 |1 G,,3 G,,- G,,2 :|2 G,,6 ||!p! C,3 C,- C,2 | G,,4 G,,2 | %7
 C,3 C,- C,2 | G,,6 | D, [F,A,C]2 D, [F,A,C]2 | G,, [F,G,B,]2 G,, [F,G,B,]2 | %11
 C, [E,G,C]2 C, [E,G,C]2 | C,4 _G,,2 | F,, [E,A,C]2 F,, [E,A,C]2 | ^F,, [_E,A,C]2 F,, [E,A,C]2 | %15
 G,, [E,G,C]2 G,, [E,G,C]2 | G,,4 G,,2 | F,, [E,A,C]2 F,, [E,A,C]2 | ^F,, [_E,A,C]2 F,, [E,A,C]2 | %19
 G,, [E,G,C]2 G,, _B,,2 | A,, [G,A,^C]2 A,, [G,A,C]2 | B,, [F,A,D]2 B,, [F,A,D]2 | %22
 E,, [E,^G,D]2 E,, [E,G,D]2 | A,, [E,G,C]2 A,, [E,G,C]2 |!mf! [D,^F,CD]6 | z2 z4 | z4 z2 || %27
 G,,4 G,,2 | G,,4 G,,2 | G,,4 G,,2 | G,,3 G,,- G,,2 | _A,,4 A,,2 | _A,,4 A,,2 | _A,,4 A,,2 | %34
 _A,,4 (A,,2 ||[K:D] D,,6) | E,,4 (=F,,2 | F,,6) | B,,6 | E,, [G,B,D]2 E,, [G,B,D]2 | %40
 A,, [G,A,C]2 A,, [G,A,C]2 | D, [F,A,D]2 D, [F,A,D]2 | D, [F,=CD]2 D, _A,,2 | %43
 G,, [F,B,D]2 G,, [F,B,D]2 | ^G,, [=F,B,D]2 G,, [F,B,D]2 | A,, [F,A,D]2 A,, [F,A,D]2 | %46
 A,, [E,G,C]2 A,, _A,,2 | G,, [F,B,D]2 G,, [F,B,D]2 | G,, [=F,G,B,]2 G,, [F,G,B,]2 | %49
 F,,"Am" [E,A,=C]2 F,, [E,A,C]2 | B,, [_E,A,=C]2 B,, [E,A,C]2 | C, [E,G,B,]2 C, [E,G,B,]2 | %52
 F,, [E,F,^A,]2 F,, [E,F,A,]2 | B,, [F,A,D]2 B,, [F,A,D]2 |!mp! [E,,E,^G,D]6 | z6 | z6 | %57
 _B,,3 B,,- B,,2 | _E,,3 E,,- E,,2 | !fermata!D,,2 z4 |!>(! !fermata![D,,E,F,A,C]6!>)! |] %61
V:3
 x6 | x6 | x6 |1 x6 :|2 x6 || [B,E]6 | x6 | [B,E]6 | x6 | x6 | x6 | x6 | x6 | x6 | x6 | [B,E]6 | %16
 x6 | x6 | x6 | x6 | x6 | x6 | x6 | x6 | x6 | x6 | x6 || x6 | x6 | x6 | x6 | x6 | x6 | x6 | x6 || %35
[K:D] x6 | x6 | x6 | x6 | x6 | x6 | x6 | x6 | x6 | x6 | x6 | x6 | x6 | x6 | x6 | x6 | x6 | x6 | %53
 x6 | x6 | x6 | x6 | x6 | x6 | x6 | x6 |] %61

